images/iconpen.svg

<svg width="50" height="50" viewBox="0 0 50 50" fill="none" xmlns="http://www.w3.org/2000/svg">
<path d="M25.0001 0C11.1927 0 0 11.1927 0 25.0001C0 38.8077 11.1927 50 25.0001 50C38.8073 50 50 38.8077 50 25.0001C50 11.1927 38.8073 0 25.0001 0ZM25.0001 45.8943C13.4789 45.8943 4.106 36.521 4.106 25.0001C4.106 13.4793 13.4789 4.106 25.0001 4.106C36.5209 4.106 45.8939 13.4793 45.8939 25.0001C45.8939 36.521 36.521 45.8943 25.0001 45.8943Z" fill="#1CA9A0" fill-opacity="0.89"/>
<path d="M40.4461 20.1173C40.4433 20.0978 40.4385 20.0791 40.4352 20.0596C40.4287 20.0222 40.4217 19.9848 40.412 19.9482C40.4063 19.9262 40.3982 19.9051 40.3914 19.884C40.3808 19.8514 40.3702 19.8189 40.3572 19.7872C40.3481 19.7652 40.3376 19.7433 40.3275 19.7221C40.3135 19.6921 40.299 19.6628 40.2823 19.6344C40.2701 19.6132 40.2572 19.5928 40.2446 19.5726C40.2266 19.5449 40.2084 19.518 40.1884 19.492C40.1738 19.4726 40.1584 19.453 40.143 19.4343C40.1218 19.41 40.0998 19.3856 40.0766 19.3627C40.0592 19.3449 40.042 19.327 40.0238 19.3106C39.9994 19.2887 39.9742 19.2675 39.9486 19.2473C39.9288 19.2318 39.9091 19.2163 39.8884 19.2017C39.8806 19.1968 39.8738 19.1903 39.8664 19.1854L25.7368 9.76568C25.2904 9.46808 24.7094 9.46808 24.263 9.76568L10.1335 19.1853C10.1262 19.1902 10.1193 19.1967 10.1116 19.2016C10.0908 19.2162 10.0713 19.2317 10.0518 19.2472C10.0258 19.2675 10.0006 19.2887 9.97661 19.3105C9.95791 19.3269 9.94091 19.3447 9.92331 19.3626C9.90021 19.3855 9.87821 19.4099 9.85751 19.4342C9.84161 19.453 9.82621 19.4725 9.81161 19.4919C9.79211 19.5179 9.77331 19.5448 9.75591 19.5725C9.74251 19.5928 9.72991 19.6131 9.71771 19.6343C9.70141 19.6627 9.68681 19.692 9.67261 19.722C9.66241 19.7431 9.65181 19.7651 9.64291 19.7871C9.62991 19.8188 9.61931 19.8513 9.60881 19.8839C9.60181 19.905 9.59421 19.9261 9.58801 19.9481C9.57831 19.9847 9.57181 20.0221 9.56491 20.0595C9.56171 20.079 9.55681 20.0977 9.55431 20.1172C9.54661 20.1741 9.54211 20.2318 9.54211 20.2904V29.7101C9.54211 29.7686 9.54651 29.8263 9.55431 29.8841C9.55681 29.9029 9.56171 29.9223 9.56491 29.9409C9.57181 29.9783 9.57831 30.0157 9.58801 30.0523C9.59421 30.0743 9.60181 30.0955 9.60881 30.1166C9.61931 30.149 9.62991 30.1816 9.64291 30.2141C9.65181 30.2363 9.66241 30.2574 9.67261 30.2786C9.68691 30.3086 9.70151 30.3378 9.71771 30.3671C9.72991 30.3875 9.74251 30.4077 9.75591 30.4281C9.77331 30.4557 9.79211 30.4826 9.81161 30.5087C9.82621 30.529 9.84171 30.5478 9.85751 30.5664C9.87831 30.5907 9.90021 30.6152 9.92331 30.638C9.94081 30.6558 9.95791 30.6737 9.97661 30.69C10.0006 30.7121 10.0258 30.7332 10.0518 30.7535C10.0713 30.769 10.0909 30.7845 10.1116 30.7989C10.1193 30.8039 10.1262 30.8104 10.1335 30.8152L24.263 40.2349C24.4861 40.3836 24.7432 40.4585 25.0001 40.4585C25.2567 40.4585 25.5136 40.3836 25.7369 40.2349L39.8664 30.8152C39.8738 30.8104 39.8806 30.8039 39.8884 30.7989C39.9091 30.7844 39.9287 30.769 39.9486 30.7535C39.9742 30.7332 39.9994 30.7121 40.0238 30.69C40.0421 30.6738 40.0592 30.6558 40.0766 30.638C40.0998 30.6152 40.1218 30.5907 40.143 30.5664C40.1584 30.5477 40.1738 30.529 40.1884 30.5087C40.2084 30.4826 40.2267 30.4558 40.2446 30.4281C40.2572 30.4077 40.2701 30.3875 40.2823 30.3671C40.299 30.3378 40.3135 30.3086 40.3275 30.2786C40.3376 30.2574 40.3481 30.2363 40.3572 30.2141C40.3702 30.1817 40.3807 30.1491 40.3914 30.1166C40.3982 30.0955 40.4063 30.0743 40.412 30.0523C40.4218 30.0157 40.4287 29.9783 40.4352 29.9409C40.4385 29.9222 40.4433 29.9028 40.4461 29.8841C40.4534 29.8263 40.458 29.7686 40.458 29.7101V20.2904C40.458 20.2319 40.4534 20.1742 40.4461 20.1173ZM26.3285 13.3534L36.7373 20.2921L32.088 23.4024L26.3285 19.5497V13.3534ZM23.6714 13.3534V19.5497L17.9122 23.4024L13.2625 20.2921L23.6714 13.3534ZM12.1989 22.7772L15.5227 25.0003L12.1989 27.2236V22.7772ZM23.6714 36.6472L13.2626 29.7084L17.9123 26.599L23.6715 30.451V36.6472H23.6714ZM25 28.1432L20.3012 25.0003L25 21.8575L29.6985 25.0003L25 28.1432ZM26.3285 36.6472V30.451L32.088 26.599L36.7373 29.7084L26.3285 36.6472ZM37.8009 27.2235L34.4776 25.0002L37.8009 22.7771V27.2235Z" fill="#1CA9A0" fill-opacity="0.89"/>
</svg>

<svg fill="none" height="50" viewBox="0 0 50 50" width="50" xmlns="http://www.w3.org/2000/svg"><g fill="#1ca9a0" fill-opacity=".89"><path d="m25.0001 0c-13.8074 0-25.0001 11.1927-25.0001 25.0001 0 13.8076 11.1927 24.9999 25.0001 24.9999 13.8072 0 24.9999-11.1923 24.9999-24.9999 0-13.8074-11.1927-25.0001-24.9999-25.0001zm0 45.8943c-11.5212 0-20.8941-9.3733-20.8941-20.8942 0-11.5208 9.3729-20.8941 20.8941-20.8941 11.5208 0 20.8938 9.3733 20.8938 20.8941 0 11.5209-9.3729 20.8942-20.8938 20.8942z"/><path d="m40.4461 20.1173c-.0028-.0195-.0076-.0382-.0109-.0577-.0065-.0374-.0135-.0748-.0232-.1114-.0057-.022-.0138-.0431-.0206-.0642-.0106-.0326-.0212-.0651-.0342-.0968-.0091-.022-.0196-.0439-.0297-.0651-.014-.03-.0285-.0593-.0452-.0877-.0122-.0212-.0251-.0416-.0377-.0618-.018-.0277-.0362-.0546-.0562-.0806-.0146-.0194-.03-.039-.0454-.0577-.0212-.0243-.0432-.0487-.0664-.0716-.0174-.0178-.0346-.0357-.0528-.0521-.0244-.0219-.0496-.0431-.0752-.0633-.0198-.0155-.0395-.031-.0602-.0456-.0078-.0049-.0146-.0114-.022-.0163l-14.1296-9.41972c-.4464-.2976-1.0274-.2976-1.4738 0l-14.1295 9.41962c-.0073.0049-.0142.0114-.0219.0163-.0208.0146-.0403.0301-.0598.0456-.026.0203-.0512.0415-.07519.0633-.0187.0164-.0357.0342-.0533.0521-.0231.0229-.0451.0473-.0658.0716-.0159.0188-.0313.0383-.0459.0577-.0195.026-.0383.0529-.0557.0806-.0134.0203-.026.0406-.0382.0618-.0163.0284-.0309.0577-.0451.0877-.0102.0211-.0208.0431-.0297.0651-.013.0317-.0236.0642-.0341.0968-.007.0211-.0146.0422-.0208.0642-.0097.0366-.0162.074-.0231.1114-.0032.0195-.0081.0382-.0106.0577-.0077.0569-.0122.1146-.0122.1732v9.4197c0 .0585.0044.1162.0122.174.0025.0188.0074.0382.0106.0568.0069.0374.0134.0748.0231.1114.0062.022.0138.0432.0208.0643.0105.0324.0211.065.0341.0975.0089.0222.0195.0433.0297.0645.0143.03.0289.0592.0451.0885.0122.0204.0248.0406.0382.061.0174.0276.0362.0545.0557.0806.0146.0203.0301.0391.0459.0577.0208.0243.0427.0488.0658.0716.0175.0178.0346.0357.0533.052.02399.0221.04919.0432.07519.0635.0195.0155.0391.031.0598.0454.0077.005.0146.0115.0219.0163l14.1295 9.4197c.2231.1487.4802.2236.7371.2236.2566 0 .5135-.0749.7368-.2236l14.1295-9.4197c.0074-.0048.0142-.0113.022-.0163.0207-.0145.0403-.0299.0602-.0454.0256-.0203.0508-.0414.0752-.0635.0183-.0162.0354-.0342.0528-.052.0232-.0228.0452-.0473.0664-.0716.0154-.0187.0308-.0374.0454-.0577.02-.0261.0383-.0529.0562-.0806.0126-.0204.0255-.0406.0377-.061.0167-.0293.0312-.0585.0452-.0885.0101-.0212.0206-.0423.0297-.0645.013-.0324.0235-.065.0342-.0975.0068-.0211.0149-.0423.0206-.0643.0098-.0366.0167-.074.0232-.1114.0033-.0187.0081-.0381.0109-.0568.0073-.0578.0119-.1155.0119-.174v-9.4197c0-.0585-.0046-.1162-.0119-.1731zm-14.1176-6.7639 10.4088 6.9387-4.6493 3.1103-5.7595-3.8527zm-2.6571 0v6.1963l-5.7592 3.8527-4.6497-3.1103zm-11.4725 9.4238 3.3238 2.2231-3.3238 2.2233zm11.4725 13.87-10.4088-6.9388 4.6497-3.1094 5.7592 3.852v6.1962zm1.3286-8.504-4.6988-3.1429 4.6988-3.1428 4.6985 3.1428zm1.3285 8.504v-6.1962l5.7595-3.852 4.6493 3.1094zm11.4724-9.4237-3.3233-2.2233 3.3233-2.2231z"/></g></svg>
